X: 605
T: Golden Wedding Reel
B: jims roots
M:C|
L:1/8
R: reel
Q: 1/4=100
K:G
V:1 
|: Bc | "G"d2BG DGBd | gedB GABd | "F"~c2A=F cFAB | cdcA =F2Bc |
"G"d2BG DGBd | gedB G2ef | "C"gfge "G"dBge | "D7"dBAF "G"G2 :|
|: ef | "C" gfga gecg | ecgc e{f}gcg | "D7"daab afda | fdad fdef |
"C" gfga gecg | ecgc e{f}gcg | "D7"afge dBge | dBAB "G"G2 :|
% abcbook-tune_id 6298c25dd879ddf55f32a156


% abcbook-boost 0
% abcbook-tablature 
% abcbook-transpose 
% abcbook-lastupdated 1654178398301
% abcbook-soundfonts 
% abcbook-repeats 1


